X:1
T:Java, 888.88
T:Java, 888.88
T:Thomas Shoel (1759-1823)
T:Public Domain Courtesy of the Cyber Hymnal™
C:Thomas Shoel (1759-1823)
Z:Public Domain
Z:Courtesy of the Cyber Hymnal™
%%score ( 1 2 ) ( 3 4 )
L:1/8
Q:1/4=113
M:3/4
K:G
V:1 treble 
V:2 treble 
V:3 bass 
V:4 bass 
V:1
 [DG]2 [DG]2 [FA]2 | [GB]4 (GB) | [Gc]4 [GB]2 | [FA]4 z2 | [GB]2 [GB]2 ([DG][GB]) | %5
 (c>d) e2 [Gd]2 | (c2 B2) [FA]2 | G4 z2 | [FA]2 [FA]2 [^GB]2 | c4 [GB]2 | [GB]2 [DA]2 G2 | %11
 [FA]4 [Dd]2 | [Gd]4 [DB]2 | [EB]4 [DG]2 | [EB]4 [DG]2 | (A>B) c2 [DB]2 | (B2 A2) z2 | %17
 [Dd]2 [Fd]2 (Bd) | e4 [Gd]2 | (c2 B2) [FA]2 | G4 z2 |] %21
V:2
 x6 | x4 G2 | x6 | x6 | x6 | G4 x2 | G4 x2 | G4 x2 | x6 | A2 F2 x2 | x4 (DG) | x6 | x6 | x6 | x6 | %15
 D4 x2 | D4 x2 | x4 G2 | (G2 F2) x2 | G4 x2 | G4 x2 |] %21
V:3
 [G,B,]2 [B,,D]2 [D,D]2 | [G,D]4 [E,C]2 | [C,C]4 [G,,D]2 | [D,C]4 z2 | [G,D]2 [G,D]2 (B,D) | %5
 C4 [B,,D]2 | ([C,E]2 [D,D]2) [D,C]2 | [G,,B,]4 z2 | [D,D]2 [C,D]2 [B,,D]2 | %9
 [A,,E]2 [A,C]2 [G,D]2 | [G,D]2 [F,C]2 [G,B,]2 | [D,D]4 [F,A,]2 | [D,D]4 [F,A,]2 | [G,B,]4 G,2 | %14
 [E,G,]4 [B,,G,]2 | F,4 [G,,G,]2 | (G,2 F,2) z2 | [B,,G,]2 [D,A,]2 [G,B,]2 | (C2 A,2) (B,D) | %19
 [C,E]2 [D,D]2 [D,C]2 | [G,,B,]4 z2 |] %21
V:4
 x6 | x6 | x6 | x6 | x4 =F,2 | (E,>D,) C,2 x2 | x6 | x6 | x6 | x6 | x6 | x6 | x6 | x4 G,2 | x6 | %15
 (C,>B,,) A,,2 x2 | D,4 x2 | x6 | C,4 B,,2 | x6 | x6 |] %21

